frontend/public/svg/interface/sun-2.svg

<svg width="117" height="110" viewBox="0 0 117 110" fill="none" xmlns="http://www.w3.org/2000/svg">
<g clip-path="url(#clip0)">
<path d="M114.064 44.6482C114.551 44.5397 115.002 44.3141 115.379 43.9914C115.755 43.6686 116.045 43.2589 116.221 42.7988C116.391 42.2782 116.428 41.7243 116.328 41.1864C116.229 40.6484 115.995 40.1432 115.65 39.7156C114.964 38.8663 114.177 38.1023 113.304 37.4403L113.211 37.3631C109.952 34.6723 108.948 31.5093 110.155 27.6497C110.378 26.9356 110.611 26.1971 110.772 25.4503C111.103 23.945 110.91 22.7016 110.215 21.8525C109.52 21.0033 108.371 20.5659 106.813 20.5659H106.784C106.031 20.5813 105.279 20.6349 104.531 20.7267C103.845 20.8001 103.136 20.8753 102.446 20.8843C97.2705 20.9641 93.0612 17.6615 92.2597 12.8833C92.186 12.4478 92.1346 12.0084 92.0831 11.5697C92.0316 11.131 91.9801 10.6981 91.9091 10.2658C91.6028 8.40802 91.0312 7.30673 90.1104 6.81013C89.1896 6.31352 87.9051 6.42416 86.0967 7.19223C84.1136 8.10825 82.0373 8.81251 79.9024 9.29317C78.7457 9.4929 77.5596 9.45405 76.4185 9.17905C75.2781 8.90405 74.2073 8.39882 73.2735 7.69527C72.5846 7.21462 72.0046 6.59739 71.5706 5.88297C71.1366 5.16855 70.8583 4.37267 70.7534 3.54615C70.6374 2.07305 70.2125 1.13645 69.4552 0.682939C68.7208 0.242937 67.7367 0.291827 66.4471 0.832822C65.4423 1.36991 64.57 2.11962 63.8927 3.02831C59.3629 8.21182 54.0282 8.68913 48.8753 4.36953C48.8147 4.31872 48.756 4.26533 48.6974 4.21194C48.5882 4.10791 48.4726 4.0106 48.3513 3.92054C47.048 2.99358 45.7081 2.69316 44.5716 3.07462C43.9678 3.32198 43.4336 3.70979 43.0146 4.20499C42.5955 4.70019 42.304 5.28808 42.1649 5.91853C42.03 6.36883 41.9166 6.82299 41.8032 7.27843C41.6553 7.87796 41.5015 8.49744 41.2968 9.0796C40.2098 12.1815 38.2339 13.6231 35.1593 13.5716C33.9858 13.4928 32.8293 13.252 31.7236 12.8563C31.2022 12.6974 30.662 12.5346 30.1269 12.4015L25.1448 11.167L25.2041 11.6456C25.2778 12.2349 25.3344 12.7334 25.3775 13.1728C25.4359 13.8604 25.5322 14.5443 25.6662 15.2216C26.4306 18.6683 25.178 21.2529 22.0434 22.6958C19.3333 23.8862 16.3412 24.3094 13.4014 23.918C12.1582 23.7459 10.8919 23.8456 9.69204 24.2101C9.27705 24.3136 8.89549 24.5194 8.58307 24.8083C8.27072 25.097 8.03767 25.4594 7.90577 25.8614C7.81728 26.308 7.84061 26.7693 7.97387 27.2052C8.10708 27.6409 8.34612 28.0379 8.6702 28.3618C8.90116 28.6207 9.15193 28.8618 9.42029 29.0829C9.66493 29.2825 9.89328 29.5009 10.1033 29.7358C12.1939 32.2124 12.9492 34.9804 12.2297 37.5291C11.5102 40.0777 9.41443 42.0609 6.32937 43.1127C6.05436 43.206 5.77412 43.2922 5.49324 43.3777C4.67785 43.5911 3.8926 43.904 3.15567 44.3092C2.70491 44.5835 2.32883 44.9624 2.06012 45.4129C1.79141 45.8633 1.63818 46.3717 1.61376 46.8939C1.58149 47.3635 1.6675 47.8336 1.8641 48.2624C2.06072 48.6911 2.36182 49.0652 2.74052 49.3512C3.58217 49.8814 4.52275 50.2401 5.50693 50.4062L5.62749 50.4351C8.9035 51.2186 9.89667 52.6718 9.42094 55.9904C9.22518 57.3722 8.75062 58.7012 8.02529 59.8988C7.2999 61.0963 6.33853 62.138 5.19803 62.9622C2.91713 64.6947 2.21984 67.1186 1.5434 69.4594L1.40653 69.9335C1.25151 70.3066 1.20477 70.7145 1.27153 71.112C1.33829 71.5096 1.51593 71.8814 1.78451 72.185C2.38471 72.7549 3.43195 72.8527 4.66038 72.452C5.31169 72.1992 6.01853 72.1175 6.71125 72.2165C9.91166 72.9454 11.9338 74.136 12.8918 75.8555C13.769 77.4303 13.754 79.4347 12.8455 81.9834C12.4057 83.1297 11.8914 84.247 11.3056 85.3284C10.9237 86.0727 10.5282 86.8427 10.1847 87.6229C9.35186 89.5174 9.64056 91.1089 11.0228 92.2249C12.4174 93.3539 14.0433 93.2966 15.7234 92.059C15.8967 91.9303 16.0688 91.8017 16.2402 91.6666C16.7366 91.2542 17.2765 90.8959 17.8505 90.5975C19.5957 89.7792 21.0398 89.6055 22.1425 90.079C23.2249 90.5441 24.0584 91.6692 24.6189 93.424C25.6518 96.6494 26.0252 99.3582 24.4931 102.091C24.1516 102.701 24.3276 103.52 24.499 104.311C24.575 104.629 24.6329 104.951 24.6723 105.276L24.7062 105.626L25.0581 105.571C25.352 105.525 25.6512 105.493 25.9496 105.462C26.6726 105.419 27.386 105.277 28.0689 105.039C28.5376 104.818 28.9626 104.515 29.3241 104.147C29.5952 103.88 29.8972 103.646 30.224 103.449C30.7493 103.165 31.2713 102.867 31.794 102.568C33.3257 101.612 34.9626 100.832 36.6731 100.242C42.7644 98.4222 46.4836 100.317 48.7293 106.38C48.7671 106.484 48.8011 106.589 48.8343 106.694C49.0382 107.408 49.4337 108.053 49.979 108.563C50.5243 109.072 51.1989 109.427 51.9317 109.589C52.1434 109.627 52.3583 109.646 52.5736 109.646C53.6508 109.618 54.6778 109.19 55.4501 108.448C55.7883 108.129 56.1012 107.785 56.386 107.419C56.5867 107.172 56.788 106.926 57.0077 106.697C60.762 102.786 63.9058 102.423 68.6074 105.361C70.7397 106.693 72.12 107.116 73.2142 106.767C74.4634 106.37 75.2455 104.992 76.1037 102.897C77.2487 99.9725 79.3798 97.5262 82.137 95.9707C85.1706 94.1889 88.0635 94.1863 91.2417 95.9591C91.7038 96.2505 92.2336 96.421 92.781 96.4551C93.3278 96.4886 93.8752 96.3844 94.3698 96.1521C94.9642 95.8022 95.4601 95.312 95.8146 94.726C96.1685 94.1393 96.3699 93.4755 96.3992 92.7936C96.4409 92.3562 96.4559 91.9168 96.4448 91.4781C96.4448 91.2472 96.4448 91.0162 96.45 90.7866C96.409 89.4537 96.6677 88.1292 97.2092 86.9076C97.7501 85.6861 98.5595 84.5983 99.5781 83.7234C100.597 82.8486 101.801 82.2085 103.101 81.8489C104.402 81.49 105.767 81.4198 107.098 81.6456C107.713 81.7576 108.345 81.7363 108.951 81.582C109.557 81.4276 110.12 81.1445 110.603 80.7528C110.978 80.3842 111.265 79.9377 111.445 79.4469C111.624 78.9561 111.692 78.4318 111.641 77.9121C111.501 75.6034 111.065 73.3217 110.345 71.1204C109.101 67.0195 110.037 64.2134 113.379 62.0218C115.35 60.7301 116.288 59.4931 116.247 58.24C116.208 56.9972 115.213 55.8341 113.202 54.6839C111.221 53.5505 109.604 52.4363 109.879 50.2672C110.176 47.9501 110.902 45.4626 114.064 44.6482ZM107.053 57.3606C101.829 62.7339 100.833 68.4251 104.016 74.7382C96.2421 75.5982 91.3734 80.1095 89.1531 88.5126C81.6711 88.2058 76.0679 91.5167 71.9968 98.6159C64.9999 93.3147 58.1377 96.2924 53.4834 99.1376C49.6931 94.6848 45.4285 93.2381 41.2675 93.2381C38.1525 93.332 35.0772 93.9541 32.1758 95.0772C31.8259 94.2834 31.4916 93.4652 31.1657 92.6707C30.3735 90.5698 29.4032 88.539 28.2651 86.5995C26.3856 83.5993 22.9447 83.2545 19.5279 83.0049C20.7661 74.9048 17.7886 69.8448 10.4239 67.5566C14.9981 61.9086 18.7114 55.0911 13.0254 47.0933C18.4292 42.1613 19.7938 36.3043 17.0854 29.6753C23.2478 28.529 29.5587 26.1631 30.7408 17.9137C34.5656 18.7467 37.7575 18.6213 40.7579 17.5329C44.5513 16.1524 46.2457 13.03 47.2747 10.3449C49.9916 11.8457 53.585 13.2654 57.7819 11.8489C61.2678 10.7505 64.4005 8.76813 66.8668 6.09995C71.3751 14.1486 77.6456 14.8073 86.2374 13.1445C87.8562 21.9059 93.6966 26.6243 103.606 27.1743C102.694 33.4456 104.258 38.2733 108.266 41.5328C107.891 42.335 107.51 43.1063 107.138 43.8608C106.232 45.5965 105.443 47.3894 104.775 49.2277C103.733 52.3141 105.222 54.9605 107.053 57.3606Z" fill="black"/>
<path d="M75.1881 22.5838C71.3542 21.381 67.3991 20.5923 63.3928 20.2314C54.1832 19.17 43.2374 23.3879 35.5189 30.9805C31.7062 34.6706 28.8066 39.1786 27.0451 44.1543C25.2837 49.13 24.7078 54.4396 25.3623 59.6706C26.6337 70.731 32.5961 78.3975 43.0882 82.4585C49.7065 84.9628 56.7427 86.2159 63.8301 86.1528C64.2667 86.1528 64.7046 86.1483 65.1439 86.14C70.1102 86.0435 74.2757 85.1011 77.8789 83.2574C88.5665 77.7896 94.3059 68.5046 95.9508 54.0277V54.0033V53.9782C95.2913 36.9797 88.8852 27.2977 75.1881 22.5838ZM85.0572 62.1703C83.3381 66.6391 81.5707 70.188 78.5345 72.985C74.3357 76.8524 69.0701 78.7571 62.438 78.8066C61.0695 78.5796 59.6944 78.3711 58.3206 78.1634C55.3672 77.7131 52.3135 77.2512 49.3607 76.5976C33.4394 73.0744 30.1725 59.9587 32.4227 48.8597C34.2957 39.6229 41.5652 28.7972 56.35 26.1167C57.6678 25.8708 59.0056 25.744 60.3467 25.7378C63.2602 25.728 66.129 26.4435 68.6882 27.8182C69.5764 28.3064 70.4966 28.7362 71.4422 29.1047C74.3187 30.1256 76.9568 31.7095 79.1979 33.7612C81.439 35.8131 83.2377 38.2905 84.485 41.0452C87.4144 47.7536 87.6196 55.3169 85.0572 62.1703Z" fill="black"/>
</g>
<defs>
<clipPath id="clip0">
<rect width="116" height="110" fill="white" transform="translate(0.777344)"/>
</clipPath>
</defs>
</svg>

<svg xmlns="http://www.w3.org/2000/svg" width="117" height="110" fill="none" viewBox="0 0 117 110"><g fill="#000" clip-path="url(#a)"><path d="M114.064 44.648a3.04 3.04 0 0 0 1.315-.657c.376-.322.666-.732.842-1.192a3.3 3.3 0 0 0 .107-1.613 3.3 3.3 0 0 0-.678-1.47 13.5 13.5 0 0 0-2.346-2.276l-.093-.077c-3.259-2.69-4.263-5.854-3.056-9.713.223-.714.456-1.453.617-2.2.331-1.505.138-2.748-.557-3.597-.695-.85-1.844-1.287-3.402-1.287h-.029q-1.13.023-2.253.16c-.686.074-1.395.15-2.085.158-5.175.08-9.385-3.222-10.186-8-.074-.436-.125-.876-.177-1.314a29 29 0 0 0-.174-1.304c-.306-1.858-.878-2.96-1.799-3.456s-2.205-.386-4.013.382a31 31 0 0 1-6.195 2.101 8.6 8.6 0 0 1-3.484-.114 8.6 8.6 0 0 1-3.145-1.484 6 6 0 0 1-1.702-1.812 5.9 5.9 0 0 1-.818-2.337c-.116-1.473-.54-2.41-1.298-2.863-.734-.44-1.718-.391-3.008.15a7.7 7.7 0 0 0-2.554 2.195c-4.53 5.184-9.865 5.661-15.018 1.342a6 6 0 0 1-.178-.158 4 4 0 0 0-.346-.291c-1.303-.927-2.643-1.228-3.78-.846a4.05 4.05 0 0 0-1.556 1.13 4 4 0 0 0-.85 1.714c-.135.45-.248.904-.362 1.36-.148.599-.301 1.218-.506 1.8-1.087 3.102-3.063 4.544-6.138 4.493a12.7 12.7 0 0 1-3.435-.716 32 32 0 0 0-1.597-.454l-4.982-1.235.06.479c.073.589.13 1.087.173 1.527q.087 1.031.288 2.049c.765 3.446-.488 6.03-3.623 7.474a16.2 16.2 0 0 1-8.642 1.222 8.7 8.7 0 0 0-3.709.292 2.55 2.55 0 0 0-1.109.598 2.5 2.5 0 0 0-.677 1.053 2.76 2.76 0 0 0 .068 1.344c.133.436.372.833.696 1.157q.347.39.75.72.368.3.683.654c2.09 2.476 2.846 5.244 2.127 7.793s-2.816 4.532-5.9 5.584q-.415.139-.837.265c-.815.213-1.6.526-2.337.931a3.2 3.2 0 0 0-1.096 1.104 3.2 3.2 0 0 0-.446 1.48c-.033.47.053.94.25 1.37.197.428.498.802.877 1.088.841.53 1.782.89 2.766 1.055l.12.03c3.276.783 4.27 2.236 3.794 5.554a10.35 10.35 0 0 1-1.396 3.91 10.5 10.5 0 0 1-2.827 3.063c-2.28 1.733-2.978 4.157-3.655 6.497l-.136.474a2.14 2.14 0 0 0 .378 2.252c.6.57 1.647.668 2.875.267a4.1 4.1 0 0 1 2.051-.236c3.2.73 5.223 1.92 6.18 3.64.878 1.574.863 3.579-.046 6.127a28 28 0 0 1-1.54 3.345c-.381.745-.777 1.515-1.12 2.295-.833 1.894-.544 3.486.838 4.602 1.394 1.129 3.02 1.072 4.7-.166q.26-.192.517-.392a9 9 0 0 1 1.61-1.07c1.746-.818 3.19-.991 4.292-.518 1.083.465 1.916 1.59 2.477 3.345 1.033 3.225 1.406 5.934-.126 8.667-.341.61-.165 1.429.006 2.22q.114.477.173.965l.034.35.352-.055c.294-.046.593-.078.892-.109a8 8 0 0 0 2.119-.423 4.4 4.4 0 0 0 1.255-.892 5 5 0 0 1 .9-.698 75 75 0 0 0 1.57-.881 24 24 0 0 1 4.88-2.326c6.09-1.82 9.81.075 12.055 6.138q.056.156.105.314a4.1 4.1 0 0 0 1.145 1.869c.545.509 1.22.864 1.953 1.026q.317.057.642.057a4.3 4.3 0 0 0 2.876-1.198 9 9 0 0 0 .936-1.029c.2-.247.402-.493.622-.722 3.754-3.911 6.898-4.274 11.6-1.336 2.132 1.332 3.512 1.755 4.606 1.406 1.25-.397 2.032-1.775 2.89-3.87a13.7 13.7 0 0 1 6.033-6.926c3.034-1.782 5.927-1.785 9.105-.012a3.27 3.27 0 0 0 3.128.193c.594-.35 1.09-.84 1.445-1.426a4.1 4.1 0 0 0 .584-1.932q.063-.657.046-1.316-.001-.346.005-.691a8.9 8.9 0 0 1 .76-3.88 9 9 0 0 1 2.368-3.184 9.15 9.15 0 0 1 3.523-1.874 9.2 9.2 0 0 1 3.997-.203 4.35 4.35 0 0 0 1.853-.064 4.3 4.3 0 0 0 1.652-.83 3.54 3.54 0 0 0 .842-1.305c.179-.49.247-1.015.196-1.535a27 27 0 0 0-1.296-6.792c-1.244-4.1-.308-6.907 3.034-9.098 1.971-1.292 2.909-2.529 2.868-3.782-.039-1.243-1.034-2.406-3.045-3.556-1.981-1.133-3.598-2.248-3.323-4.417.297-2.317 1.023-4.804 4.185-5.619m-7.011 12.713c-5.224 5.373-6.22 11.064-3.037 17.377-7.774.86-12.643 5.371-14.863 13.775-7.482-.307-13.085 3.004-17.156 10.103-6.997-5.301-13.86-2.324-18.514.522-3.79-4.453-8.054-5.9-12.215-5.9-3.115.094-6.19.716-9.092 1.84-.35-.795-.684-1.613-1.01-2.407a39.6 39.6 0 0 0-2.9-6.071c-1.88-3-5.321-3.346-8.738-3.595 1.238-8.1-1.74-13.16-9.104-15.448 4.574-5.648 8.287-12.466 2.601-20.464 5.404-4.932 6.769-10.789 4.06-17.418 6.163-1.146 12.474-3.512 13.656-11.761 3.825.833 7.017.707 10.017-.381 3.793-1.38 5.488-4.503 6.517-7.188 2.717 1.5 6.31 2.92 10.507 1.504a20.94 20.94 0 0 0 9.085-5.75c4.508 8.05 10.779 8.708 19.37 7.046 1.62 8.76 7.46 13.48 17.369 14.03-.912 6.27.652 11.098 4.66 14.358-.375.802-.756 1.573-1.128 2.328a44 44 0 0 0-2.363 5.367c-1.042 3.086.447 5.733 2.278 8.133"/><path d="M75.188 22.584a56.3 56.3 0 0 0-11.795-2.353c-9.21-1.061-20.156 3.157-27.874 10.75a34.24 34.24 0 0 0-8.474 13.173 33.9 33.9 0 0 0-1.683 15.517c1.272 11.06 7.234 18.726 17.726 22.788a57.2 57.2 0 0 0 20.742 3.694q.656 0 1.314-.013c4.966-.097 9.132-1.039 12.735-2.883 10.688-5.467 16.427-14.752 18.072-29.23v-.049c-.66-16.998-7.066-26.68-20.763-31.394m9.87 39.586c-1.72 4.47-3.487 8.018-6.524 10.815-4.198 3.867-9.464 5.772-16.096 5.822a291 291 0 0 0-4.117-.644c-2.954-.45-6.007-.912-8.96-1.565-15.922-3.524-19.188-16.64-16.938-27.738 1.873-9.237 9.142-20.063 23.927-22.743a22.4 22.4 0 0 1 3.997-.38 17.5 17.5 0 0 1 8.341 2.081 23 23 0 0 0 2.754 1.287 22.8 22.8 0 0 1 7.756 4.656 22.4 22.4 0 0 1 5.287 7.284 28.13 28.13 0 0 1 .572 21.125"/></g><defs><clipPath id="a"><path fill="#fff" d="M.777 0h116v110h-116z"/></clipPath></defs></svg>
